!!!!SEGMENT: pl-kk--kk-i-423--002-001_golabek-jakub--missa-2da-kyrie.krn
!!!cenid: 17xx:2558
!!!COM: Gołąbek, Jakub
!!!COM-rismID: pe30008748
!!!CDT: 1739-1789/03/30
!!!CNT: Polish
!!!OPR: Missa 2da
!!!OTL: Kyrie
!!!OMV: 001
!!!PDT:
!!!AGN: Sacred; Mass
!!!YEC: Copyright 2022 Narodowy Instytut Fryderyka Chopina (https://polishscores.org)
!!!YEM: License CC-BY-4.0 (https://creativecommons.org/licenses/by/4.0)
!!!SMS-siglum: PL-Kk
!!!SMS-shelfmark: Kk.I.423
!!!SMS-variant:
!!!SMS-altvar:
!!!SMS-shelfwork: 002-001 M
!!!NIFC-rismSourceID: 1001147334
!!!NIFC-rismChildID: 1001147343
!!!NIFC-islandoraID:
!!!URL-pdf-islandora: https://repozytorium.nifc.pl/islandora/object/pl-kk%3A10566/datastream/PDF/view
!!!URL-scan: https://polish.musicsources.pl/pl/lokalizacje/galeria/rekopisy/6034-masses/3 @EN{Scan on Polish Music Sources Website} @PL{Skany w portalu Dziedzictwo Muzyki Polskiej w otwartym dostępie}
!!!IIIF:
!!!ONB-nifc: UWAGA: C – skan 4-6, A – 8-10, T – 12-14, B – 16-18. Części Mszy: Kyrie, Et in terra, Quoniam, Sanctus (+Pleni i Osanna), Benedictus, Agnus Dei.
!!!AIN: 1 alto 1 bass 1 canto 1 tenor
!!!key:
**kern	**text	**dynam	**kern	**text	**dynam	**kern	**text	**dynam	**kern	**text	**dynam
*part4	*part4	*part4	*part3	*part3	*part3	*part2	*part2	*part2	*part1	*part1	*part1
*staff4	*staff4	*	*staff3	*staff3	*	*staff2	*staff2	*	*staff1	*staff1	*
*I"Basso	*	*	*I"Tenore	*	*	*I"Alto	*	*	*I"Canto	*	*
*I'B.	*	*	*I'T.	*	*	*I'A.	*	*	*I'C.	*	*
*Ibass	*	*	*Itenor	*	*	*Ialto	*	*	*Icanto	*	*
*ICvox	*	*	*ICvox	*	*	*ICvox	*	*	*ICvox	*	*
*clefF4	*	*	*clefC4	*	*	*clefC3	*	*	*clefC1	*	*
*k[b-]	*	*	*k[b-]	*	*	*k[b-]	*	*	*k[b-]	*	*
*F:	*	*	*F:	*	*	*F:	*	*	*F:	*	*
*M2/2	*	*	*M2/2	*	*	*M2/2	*	*	*M2/2	*	*
*met(c|)	*	*	*met(c|)	*	*	*met(c|)	*	*	*met(c|)	*	*
=1	=1	=1	=1	=1	=1	=1	=1	=1	=1	=1	=1
!LO:TX:a:t=Lento	!	!LO:DY:a	!	!	!LO:DY:a	!LO:TX:a:t=Lento	!	!LO:DY:a	!LO:TX:a:t=Lento	!	!
4.F\	Ky-	p	4.A/	Ky-	p	4.c/	Ky-	p	4.ff\	Ky-	.
8F\	-ri-	.	8G/	-ri-	.	8B-/	-ri-	.	8cc\	-ri-	.
4A\	-e	.	8F/	-e	.	8A/	-e	.	4cc\	-e	.
.	.	.	8A\L	e-	.	8f\L	e-	.	.	.	.
4F\	e-	.	8c\	.	.	8a\	.	.	4cc\	e-	.
.	.	.	8A\J	.	.	8f\J	.	.	.	.	.
=2	=2	=2	=2	=2	=2	=2	=2	=2	=2	=2	=2
.	.	.	.	.	.	8qqg/	.	.	.	.	.
4c\	-lei-	.	4A/	-lei-	.	4f\	-lei-	.	4cc\	-lei-	.
4C/	-son	.	4G/	-son	.	4e\	-son	.	4cc\	-son	.
4r	.	.	4r	.	.	4r	.	.	4r	.	.
4F\	e-	.	8A/L	e-	.	8f\L	e-	.	8cc\L	e-	.
.	.	.	8B-/J	.	.	8d\J	.	.	8dd\J	.	.
=3	=3	=3	=3	=3	=3	=3	=3	=3	=3	=3	=3
4F\	-lei-	.	8B-/L	-lei-	.	8d\L	-lei-	.	4ff\	-lei-	.
.	.	.	8A/J	.	.	8c\J	.	.	.	.	.
4BB-/	.	.	8G/	-son	.	8B-/	-son	.	8cc\L	-son	.
.	.	.	8F/	e-	.	8A/	e-	.	8cc\J	e-	.
*	*	*	*	*	*	*	*	*	*2\right	*	*
4BB-/	.	.	8A/L	-lei-	.	8c/L	-lei-	.	2cc\	-lei-	.
.	.	.	8G/	.	.	8B-/	.	.	.	.	.
4C/	.	.	8F/	.	.	8A/	.	.	.	.	.
.	.	.	8E/J	.	.	8G/J	.	.	.	.	.
!LO:LB:g=original	!	!	!LO:LB:g=original	!	!	!LO:LB:g=original	!	!	!	!	!
=4	=4	=4	=4	=4	=4	=4	=4	=4	=4	=4	=4
.	.	.	.	.	.	8qqG	.	.	.	.	.
2F\	-son	.	2F/	-son	.	2A/	-son	.	2cc\	-son	.
!	!	!	!	!	!	!	!	!LO:DY:a	!	!	!
4r	.	.	8r	.	.	8r	.	f	4r	.	.
!	!	!	!	!	!LO:DY:a	!	!	!	!	!	!
.	.	.	8A\L	e-	f	8f\L	e-	.	.	.	.
8r	.	.	8c\	.	.	8a\	.	.	8r	.	.
!	!	!LO:DY:a	!	!	!	!	!	!	!	!	!LO:DY:a:t=for
8F\	e-	f	8A\J	.	.	8f\J	.	.	8cc\	e-	f
!	!	!	!	!	!	!	!	!	!LO:LB:g=original	!	!
=5	=5	=5	=5	=5	=5	=5	=5	=5	=5	=5	=5
4c\	-lei-	.	4A\	-lei-	.	4f\	-lei-	.	4cc\	-lei-	.
4C/	-son	.	4.G\	-son	.	4.e\	-son	.	4cc\	-son	.
4r	.	.	.	.	.	.	.	.	4r	.	.
.	.	.	8B-\L	e-	.	8g\L	e-	.	.	.	.
8r	.	.	8d\	.	.	8b-\	.	.	8r	.	.
8C/	e-	.	8B-\J	.	.	8g\J	.	.	8ee\	e-	.
=6	=6	=6	=6	=6	=6	=6	=6	=6	=6	=6	=6
4C/	-lei-	.	4B-\	-lei-	.	4g\	-lei-	.	4cc\	-lei-	.
4F\	-son	.	4A\	-son	.	4f\	-son	.	4cc\	-son	.
*	*	*	*2\right	*	*	*2\right	*	*	*	*	*
2F\	e-	.	2c\	e-	.	2a\	e-	.	4r	.	.
.	.	.	.	.	.	.	.	.	4ff\	e-	.
=7	=7	=7	=7	=7	=7	=7	=7	=7	=7	=7	=7
2F\	-lei-	.	8c\L	-lei-	.	8a\L	-lei-	.	2cc\	-lei-	.
.	.	.	8B-\	.	.	8g\	.	.	.	.	.
.	.	.	8d\	.	.	8b-\	.	.	.	.	.
.	.	.	8c\J	.	.	8a\J	.	.	.	.	.
4BB-/	.	.	8c\L	.	.	8a\L	.	.	2dd\	.	.
.	.	.	8B-\	.	.	8g\	.	.	.	.	.
4BBn/	.	.	8B-\	.	.	8g\	.	.	.	.	.
.	.	.	8A\J	.	.	8f\J	.	.	.	.	.
=8	=8	=8	=8	=8	=8	=8	=8	=8	=8	=8	=8
.	.	.	.	.	.	4qqf/	.	.	.	.	.
2C/	-son	.	2G/	-son	.	2e\	-son	.	2cc\	-son	.
2r	.	.	2r	.	.	2r	.	.	2r	.	.
!!linebreak:original
=9	=9	=9	=9	=9	=9	=9	=9	=9	=9	=9	=9
!	!	!LO:DY:a	!	!	!LO:DY:a	!	!	!LO:DY:a	!	!	!LO:DY:a
2C/	Chri-	p	4.e\	Chri-	p	4.g\	Chri-	p	4.cc\	Chri-	p
.	.	.	8d\	-ste	.	8f\	-ste	.	8bn\	.	.
4C/	-ste	.	4c\	e-	.	4e\	e-	.	4g\	-ste	.
4C/	e-	.	4e\	.	.	4g\	.	.	4cc\	e-	.
=10	=10	=10	=10	=10	=10	=10	=10	=10	=10	=10	=10
4G\	-lei-	.	8e\L	-lei-	.	8g\L	-lei-	.	8cc\L	-lei-	.
.	.	.	8d\J	.	.	8f\J	.	.	8dd\J	.	.
4GG/	-son	.	4Bn\	-son	.	4d\	-son	.	4ff\	-son	.
2r	.	.	2r	.	.	2r	.	.	2r	.	.
!	!	!	!LO:LB:g=original	!	!	!LO:LB:g=original	!	!	!	!	!
=11	=11	=11	=11	=11	=11	=11	=11	=11	=11	=11	=11
4GG/	Chri-	.	4.d\	Chri-	.	4.f\	Chri-	.	4.bn\	Chri-	.
4G\	-ste	.	.	.	.	.	.	.	.	.	.
.	.	.	8c\	.	.	8e\	.	.	8cc\	.	.
!LO:LB:g=original	!	!	!	!	!	!	!	!	!	!	!
4G\	e-	.	4Bn\	-ste	.	4d\	-ste	.	4dd\	-ste	.
4G\	.	.	4d\	e-	.	4f\	e-	.	4b\	e-	.
=12	=12	=12	=12	=12	=12	=12	=12	=12	=12	=12	=12
4c\	-lei-	.	4.c\	-lei-	.	4.e\	-lei-	.	2g/	-lei-	.
4G\	-son	.	.	.	.	.	.	.	.	.	.
.	.	.	8d\	-son	.	8f\	.	.	.	.	.
4E\	e-	.	4e\	.	.	4g\	-son	.	4g/	-son	.
4C\	.	.	8c\L	e-	.	8e\L	e-	.	4g/	e-	.
.	.	.	8G\J	.	.	8c\J	.	.	.	.	.
!	!	!	!	!	!	!	!	!	!LO:LB:g=original	!	!
=13	=13	=13	=13	=13	=13	=13	=13	=13	=13	=13	=13
2GG/	-lei-	.	8G\L	-lei-	.	8Bn/L	-lei-	.	1g	-lei-	.
.	.	.	8A\	.	.	8c/	.	.	.	.	.
.	.	.	8A\	.	.	8c/	.	.	.	.	.
.	.	.	8Bn\J	.	.	8d/J	.	.	.	.	.
2G\	.	.	8B\L	.	.	8d\L	.	.	.	.	.
.	.	.	8c\	.	.	8e\	.	.	.	.	.
.	.	.	8c\	.	.	8e\	.	.	.	.	.
.	.	.	8d\J	.	.	8f\J	.	.	.	.	.
=14	=14	=14	=14	=14	=14	=14	=14	=14	=14	=14	=14
2G\	-son	.	2d\	-son	.	2f\	-son	.	2bn\	-son	.
!	!	!	!	!	!LO:DY:a	!	!	!LO:DY:a	!	!	!
2r	.	.	8r	.	f	8r	.	f	2r	.	.
.	.	.	8f\L	e-	.	8a\L	e-	.	.	.	.
.	.	.	8e\	.	.	8g\	.	.	.	.	.
.	.	.	8d\J	.	.	8f\J	.	.	.	.	.
=15	=15	=15	=15	=15	=15	=15	=15	=15	=15	=15	=15
!	!	!LO:DY:a	!	!	!	!	!	!	!	!	!
4C\	e-	f	8c\L	-lei-	.	8e\L	-lei-	.	4g\	e-	.
.	.	.	8e\	.	.	8g\	.	.	.	.	.
4F\	.	.	8f\	.	.	8a\	.	.	4a\	.	.
.	.	.	8d\J	.	.	8f\J	.	.	.	.	.
4G\	-lei-	.	4c\	.	.	4e\	.	.	2g\	-lei-	.
4GG/	.	.	4Bn\	.	.	4d\	.	.	.	.	.
=16	=16	=16	=16	=16	=16	=16	=16	=16	=16	=16	=16
2C/	-son	.	2c\	-son	.	2e\	-son	.	2g\	-son	.
2r	.	.	2r	.	.	2r	.	.	2r	.	.
!	!	!	!LO:LB:g=original	!	!	!	!	!	!	!	!
=17	=17	=17	=17	=17	=17	=17	=17	=17	=17	=17	=17
!	!	!LO:DY:a	!	!	!LO:DY:a	!	!	!LO:DY:a	!	!	!LO:DY:a
4.F\	Ky-	p	4.A/	Ky-	p	4.f\	Ky-	p	4.cc\	Ky-	p
8F\	-ri-	.	8A/	-ri-	.	8c\	-ri-	.	8ff\	-ri-	.
!	!	!	!	!	!	!LO:LB:g=original	!	!	!	!	!
4A\	-e	.	4A\	-e	.	4c\	-e	.	4ff\	-e	.
4F\	e-	.	8B-\L	e-	.	8d\L	e-	.	4ff\	[e]-	.
.	.	.	8c\J	.	.	8e-X\J	.	.	.	.	.
=18	=18	=18	=18	=18	=18	=18	=18	=18	=18	=18	=18
4B-\	-lei-	.	8d\L	-lei-	.	8f\L	-lei-	.	2ff\	-lei-	.
.	.	.	8B-\J	.	.	8d\	.	.	.	.	.
4F\	.	.	8A\L	.	.	8c\	.	.	.	.	.
.	.	.	8c\J	.	.	8e-X\J	.	.	.	.	.
4BB-/	-son	.	4B-\	-son	.	4d\	-son	.	4ff\	-son	.
4r	.	.	4r	.	.	4r	.	.	4r	.	.
!LO:LB:g=original	!	!	!	!	!	!	!	!	!	!	!
=19	=19	=19	=19	=19	=19	=19	=19	=19	=19	=19	=19
4.G\	Ky-	.	4.Bn\	Ky-	.	4.g\	Ky-	.	4.dd\	Ky-	.
8G\	-ri-	.	8B\	-ri-	.	8d\	-ri-	.	8gg\	-ri-	.
4Bn\	-e	.	4B\	-e	.	4d\	-e	.	4gg\	-e	.
4G\	e-	.	8c\L	e-	.	8en\L	e-	.	4gg\	[e]-	.
.	.	.	8d\J	.	.	8f\J	.	.	.	.	.
=20	=20	=20	=20	=20	=20	=20	=20	=20	=20	=20	=20
4c\	-lei-	.	8e\L	-lei-	.	8g\L	-lei-	.	2gg\	-lei-	.
.	.	.	8c\J	.	.	8e\	.	.	.	.	.
4G\	.	.	8B-\L	.	.	8d\	.	.	.	.	.
.	.	.	8d\J	.	.	8f\J	.	.	.	.	.
4C/	-son	.	4c\	-son	.	4e\	-son	.	4gg\	-son	.
4r	.	.	4r	.	.	4r	.	.	4r	.	.
=21	=21	=21	=21	=21	=21	=21	=21	=21	=21	=21	=21
!	!	!LO:DY:a	!	!	!LO:DY:a	!	!	!LO:DY:a	!	!	!LO:DY:a
4.C/	Ky-	f	4.G\	Ky-	f	4.e\	Ky-	f	4.ee\	Ky-	f
8C/	-ri-	.	8A\	-ri-	.	8f\	-ri-	.	8ee\	-ri-	.
!	!	!	!	!	!	!	!	!	!LO:LB:g=original	!	!
4E/	-e	.	4B-\	-e	.	4g\	-e	.	4ee\	-e	.
4C/	e-	.	4g\	e-	.	4b-X\	e-	.	4cc\	[e]-	.
=22	=22	=22	=22	=22	=22	=22	=22	=22	=22	=22	=22
4F\	-lei-	.	4f\	-lei-	.	4a\	-lei-	.	2cc\	-lei-	.
4C/	-son	.	4e\	.	.	4g\	.	.	.	.	.
4F\	e-	.	4c\	-son	.	4f\	-son	.	4a\	-son	.
4E\	.	.	4e\	e-	.	4g\	e-	.	4cc\	e-	.
!	!	!	!LO:TX:a:t=V.S.	!	!	!	!	!	!	!	!
!	!	!	!LO:PB:g=original	!	!	!	!	!	!	!	!
=23	=23	=23	=23	=23	=23	=23	=23	=23	=23	=23	=23
4F\	-lei-	.	4c\	-lei-	.	4a\	-lei-	.	4a\	-lei-	.
4A\	.	.	8d\L	.	.	8b-\L	.	.	4dd\	.	.
.	.	.	8B-\J	.	.	8g\J	.	.	.	.	.
!	!	!	!	!	!	!LO:LB:g=original	!	!	!	!	!
4c\	.	.	4A\	.	.	4f\	.	.	2cc\	.	.
4C/	.	.	8B-\L	.	.	8g\L	.	.	.	.	.
.	.	.	8G\J	.	.	8e\J	.	.	.	.	.
=24	=24	=24	=24	=24	=24	=24	=24	=24	=24	=24	=24
2F\	-son	.	2A/	-son	.	2f\	-son	.	2cc\	-son	.
2r	.	.	2r	.	.	2r	.	.	2r	.	.
=25	=25	=25	=25	=25	=25	=25	=25	=25	=25	=25	=25
!	!	!LO:DY:a	!	!	!LO:DY:a	!	!	!LO:DY:a	!	!	!LO:DY:a
4.F\	Ky-	p	4.A/	Ky-	p	4.f\	Ky-	p	4.cc\	Ky-	p
8F\	-ri-	.	8A/	-ri-	.	8c\	-ri-	.	8ff\	-ri-	.
4A\	-e	.	4A/	-e	.	4c\	-e	.	4ff\	-e	.
4F\	e-	.	8B-\L	e-	.	8d\L	e-	.	4ff\	[e]-	.
.	.	.	8c\J	.	.	8e-X\J	.	.	.	.	.
!LO:LB:g=original	!	!	!	!	!	!	!	!	!	!	!
=26	=26	=26	=26	=26	=26	=26	=26	=26	=26	=26	=26
4B-\	-lei-	.	8d\L	-lei-	.	8f\L	-lei-	.	2ff\	-lei-	.
.	.	.	8B-\	.	.	8d\	.	.	.	.	.
4F\	.	.	8A\	.	.	8c\	.	.	.	.	.
.	.	.	8c\J	.	.	8e\J	.	.	.	.	.
4BB-/	-son	.	4B-\	-son	.	4d\	-son	.	4ff\	-son	.
4r	.	.	4r	.	.	4r	.	.	4r	.	.
!!pagebreak:original
=27	=27	=27	=27	=27	=27	=27	=27	=27	=27	=27	=27
4.G\	Ky-	.	4.Bn\	Ky-	.	4.g\	Ky-	.	4.dd\	Ky-	.
8G\	-ri-	.	8B\	-ri-	.	8d\	-ri-	.	8gg\	-ri-	.
4Bn\	-e	.	4B\	-e	.	4d\	-e	.	4gg\	-e	.
4G\	e-	.	8c\L	e-	.	8en\L	e-	.	4gg\	e-	.
.	.	.	8d\J	.	.	8f\J	.	.	.	.	.
=28	=28	=28	=28	=28	=28	=28	=28	=28	=28	=28	=28
4c\	-lei-	.	8e\L	-lei-	.	8g\L	-lei-	.	2gg\	-lei-	.
.	.	.	8c\	.	.	8e\	.	.	.	.	.
4G\	.	.	8Bn\	.	.	8d\	.	.	.	.	.
.	.	.	8d\J	.	.	8f\J	.	.	.	.	.
4C/	-son	.	4c\	-son	.	4e\	-son	.	4gg\	-son	.
4r	.	.	4r	.	.	4r	.	.	4r	.	.
!	!	!	!LO:LB:g=original	!	!	!	!	!	!LO:LB:g=original	!	!
=29	=29	=29	=29	=29	=29	=29	=29	=29	=29	=29	=29
!	!	!LO:DY:a	!	!	!LO:DY:a	!	!	!LO:DY:a	!	!	!LO:DY:a
4.C/	Ky-	f	4.G/	Ky-	f	4.e\	Ky-	f	4.ee\	Ky-	ff
8C/	-ri-	.	8A/	-ri-	.	8f\	-ri-	.	8ee\	-ri-	.
!	!	!	!	!	!	!LO:LB:g=original	!	!	!	!	!
4E/	-e	.	4B-\	-e	.	4g\	-e	.	4ee\	-e	.
4C/	e-	.	4g\	e-	.	4b-\	e-	.	4cc\	e-	.
=30	=30	=30	=30	=30	=30	=30	=30	=30	=30	=30	=30
4F\	-lei-	.	4f\	-lei-	.	4a\	-lei-	.	2cc\	-lei-	.
4C/	.	.	4e\	.	.	4g\	.	.	.	.	.
4F\	-son	.	4c\	-son	.	4f\	-son	.	4a\	-son	.
4E\	e-	.	4e\	e-	.	4g\	e-	.	4cc\	e-	.
=31	=31	=31	=31	=31	=31	=31	=31	=31	=31	=31	=31
4F\	-lei-	.	4c\	-lei-	.	4a\	-lei-	.	4a\	-lei-	.
4A\	.	.	8d\L	.	.	8b-\L	.	.	4dd\	.	.
.	.	.	8B-\J	.	.	8g\J	.	.	.	.	.
4c\	.	.	4A\	.	.	4f\	.	.	2cc\	.	.
4C/	.	.	8B-\L	.	.	8g\L	.	.	.	.	.
.	.	.	8G\J	.	.	8e\J	.	.	.	.	.
=32	=32	=32	=32	=32	=32	=32	=32	=32	=32	=32	=32
2F\	-son	.	2A\	-son	.	2f\	-son	.	1cc	-son	.
2r	.	.	2r	.	.	2r	.	.	.	.	.
==	==	==	==	==	==	==	==	==	==	==	==
*-	*-	*-	*-	*-	*-	*-	*-	*-	*-	*-	*-
!!!system-decoration: [(s1,s2,s3,s4)]
!!!ENC: Berenika Jozajtis
!!!END: 2024-02-11
!!!ENC: Leszek Kubiak
!!!END: 2024-08-04
